packages/sources/assets/src/assets/flag-pg.svg

<svg width="28" height="20" viewBox="0 0 28 20" fill="none" xmlns="http://www.w3.org/2000/svg">
<rect width="28" height="20" rx="2" fill="white"/>
<mask id="mask0_503_3985" style="mask-type:alpha" maskUnits="userSpaceOnUse" x="0" y="0" width="28" height="20">
<rect width="28" height="20" rx="2" fill="white"/>
</mask>
<g mask="url(#mask0_503_3985)">
<rect width="28" height="20" fill="#262626"/>
<path fill-rule="evenodd" clip-rule="evenodd" d="M0 0H28V20L0 0Z" fill="#E8283F"/>
<path fill-rule="evenodd" clip-rule="evenodd" d="M6.66668 16.6667L5.72387 16.9428L6.00001 16L5.72387 15.0572L6.66668 15.3333L7.60949 15.0572L7.33334 16L7.60949 16.9428L6.66668 16.6667Z" fill="white"/>
<path fill-rule="evenodd" clip-rule="evenodd" d="M6.66668 8.66666L5.72387 8.9428L6.00001 7.99999L5.72387 7.05718L6.66668 7.33332L7.60949 7.05718L7.33334 7.99999L7.60949 8.9428L6.66668 8.66666Z" fill="white"/>
<path fill-rule="evenodd" clip-rule="evenodd" d="M3.33333 12L2.39052 12.2761L2.66667 11.3333L2.39052 10.3905L3.33333 10.6667L4.27614 10.3905L4 11.3333L4.27614 12.2761L3.33333 12Z" fill="white"/>
<path fill-rule="evenodd" clip-rule="evenodd" d="M9.33333 11.3333L8.39052 11.6095L8.66667 10.6667L8.39052 9.72387L9.33333 10L10.2761 9.72387L10 10.6667L10.2761 11.6095L9.33333 11.3333Z" fill="white"/>
<path fill-rule="evenodd" clip-rule="evenodd" d="M18.8613 9.26556C18.7016 9.16979 18.5722 8.94419 18.5722 8.7637L18.5722 7.53498C18.5722 7.35358 18.4417 7.25004 18.2442 7.31587L17.486 7.5686C17.3049 7.62898 17.0275 7.63443 16.83 7.5686L16.0718 7.31587C15.8907 7.25548 15.8705 7.1305 16.0328 7.03312L17.8118 5.96573C17.9714 5.86996 18.0573 5.66181 17.9915 5.46431L17.7388 4.70611C17.6784 4.52496 17.7599 4.42161 17.9574 4.48744L18.7156 4.74017C18.8968 4.80056 19.1197 4.72278 19.2171 4.56049L20.2844 2.7815C20.3802 2.62188 20.5014 2.623 20.5672 2.82049L20.8199 3.5787C20.8803 3.75985 20.8858 4.03721 20.8199 4.2347L20.5672 4.99291C20.5068 5.17406 20.6058 5.32091 20.7863 5.32091H22.015C22.1964 5.32091 22.4195 5.44764 22.5169 5.60993L23.5843 7.38892C23.68 7.54854 23.603 7.70887 23.43 7.74348L21.7284 8.08379C21.5474 8.11999 21.3697 8.30399 21.3351 8.47707L20.9948 10.1786C20.9586 10.3596 20.8025 10.4303 20.6402 10.333L18.8613 9.26556Z" fill="#FFD84E"/>
</g>
</svg>

<svg width="28" height="20" fill="none" xmlns="http://www.w3.org/2000/svg"><rect width="28" height="20" rx="2" fill="#fff"/><mask id="a" style="mask-type:alpha" maskUnits="userSpaceOnUse" x="0" y="0" width="28" height="20"><rect width="28" height="20" rx="2" fill="#fff"/></mask><g mask="url(#a)"><path fill="#262626" d="M0 0h28v20H0z"/><path fill-rule="evenodd" clip-rule="evenodd" d="M0 0h28v20L0 0Z" fill="#E8283F"/><path fill-rule="evenodd" clip-rule="evenodd" d="m6.667 16.667-.943.276L6 16l-.276-.943.943.276.942-.276-.276.943.276.943-.942-.276Zm0-8-.943.276L6 8l-.276-.943.943.276.942-.276L7.333 8l.276.943-.942-.276ZM3.333 12l-.942.276.276-.943-.276-.943.942.277.943-.277-.276.943.276.943L3.333 12Zm6-.667-.942.277.276-.943-.276-.943.942.276.943-.276-.276.943.276.943-.943-.277Z" fill="#fff"/><path fill-rule="evenodd" clip-rule="evenodd" d="M18.861 9.266a.653.653 0 0 1-.289-.502V7.535c0-.181-.13-.285-.328-.22l-.758.254a1.16 1.16 0 0 1-.656 0l-.758-.253c-.181-.06-.201-.186-.04-.283l1.78-1.067a.43.43 0 0 0 .18-.502l-.253-.758c-.06-.181.02-.284.218-.219l.759.253a.442.442 0 0 0 .501-.18l1.067-1.778c.096-.16.217-.159.283.038l.253.759c.06.18.066.458 0 .656l-.253.758c-.06.181.039.328.22.328h1.228a.65.65 0 0 1 .502.289l1.067 1.779c.096.16.019.32-.154.354l-1.702.34a.552.552 0 0 0-.393.394l-.34 1.702c-.036.18-.193.251-.355.154l-1.779-1.067Z" fill="#FFD84E"/></g></svg>
